docs/img/icon1/comma_services4.svg

<svg width="130" height="178" viewBox="0 0 130 178" fill="none" xmlns="http://www.w3.org/2000/svg">
<path id="&#226;&#128;&#156;&#226;&#128;&#157;" d="M11.0276 5.39856L11.0666 5.35449L11.1104 5.31529C14.1303 2.61607 18.7094 1.36536 24.6395 1.36536H60.0118C80.7234 1.36536 97.3717 7.12126 109.847 18.7249L109.847 18.7256C122.672 30.6783 129 48.5404 129 72.1183V158.963C129 164.907 127.611 169.398 124.576 172.142C121.846 175.195 117.377 176.593 111.462 176.593H18.6676C12.7116 176.593 8.11456 175.176 5.09584 172.14L5.80491 171.435L5.09584 172.14C2.36663 169.396 1.12988 164.908 1.12988 158.963L1.12988 90.5958C1.12988 84.6355 2.37282 80.0342 5.05567 76.9992L5.09463 76.9552L5.13848 76.916C8.1583 74.2167 12.7374 72.966 18.6676 72.966H67.7401V67.0369C67.7401 63.2323 66.7294 60.258 64.7919 58.0179C62.8894 56.1191 60.1221 55.1026 56.3368 55.1026H24.6395C18.6835 55.1026 14.0865 53.6858 11.0678 50.6503C8.33858 47.9059 7.10184 43.4182 7.10184 37.4727L7.10184 18.9952C7.10184 13.0348 8.34478 8.43358 11.0276 5.39856Z" stroke="#232323" stroke-width="2"/>
</svg>

<svg width="130" height="178" fill="none" xmlns="http://www.w3.org/2000/svg"><path d="M11.028 5.399l.039-.045.043-.039c3.02-2.699 7.6-3.95 13.53-3.95h35.372c20.711 0 37.36 5.756 49.835 17.36h0C122.672 30.679 129 48.54 129 72.119v86.845c0 5.944-1.389 10.435-4.424 13.179-2.73 3.053-7.199 4.451-13.114 4.451H18.668c-5.956 0-10.553-1.417-13.572-4.453l.709-.705-.71.705c-2.728-2.744-3.965-7.232-3.965-13.177V90.596c0-5.96 1.243-10.562 3.926-13.597l.039-.044.043-.039c3.02-2.7 7.6-3.95 13.53-3.95H67.74v-5.93c0-3.804-1.01-6.778-2.948-9.018-1.903-1.899-4.67-2.915-8.455-2.915H24.639c-5.956 0-10.553-1.417-13.571-4.453-2.73-2.744-3.966-7.232-3.966-13.177V18.995c0-5.96 1.243-10.561 3.926-13.596z" stroke="#232323" stroke-width="2"/></svg>
